X:16
T:Good For the Tongue
R:hornpipe
M:4/4
Z:Debby Knight
K:A
ABcd ecAe | fAgA aAAA | FAAA EAAB | cdBG AGFE |
ABcd ecAe | fAgA aAAA | FAAA EAAB | cdBG A4 ::
eA (3AAA eA (3AAA | aAfA eA (3AAA |aAfA eA (3AAB | cdBG AGFE |
eA (3AAA eA (3AAA | aAfA eA (3AAA |aAfA eA (3AAB |  cdBG A4: |
